Numix-GalliumOS/64/mimetypes/application-x-stuffit.svg

<svg xmlns="http://www.w3.org/2000/svg" xmlns:xlink="http://www.w3.org/1999/xlink" width="64px" height="64px" viewBox="0 0 64 64" version="1.1">
<g id="surface1">
<path style=" stroke:none;fill-rule:nonzero;fill:rgb(75.686275%,58.431373%,32.54902%);fill-opacity:1;" d="M 10.671875 0 C 9.296875 0 8 1.355469 8 2.789062 L 8 61.210938 C 8 62.566406 9.375 64 10.671875 64 L 53.328125 64 C 54.625 64 56 62.566406 56 61.210938 L 56 18 L 38 0 Z M 10.671875 0 "/>
<path style=" stroke:none;fill-rule:nonzero;fill:rgb(0%,0%,0%);fill-opacity:0.196078;" d="M 8 48 L 8 61.335938 C 8 62.632812 9.375 64 10.664062 64 L 53.335938 64 C 54.625 64 56 62.632812 56 61.335938 L 56 48 Z M 8 48 "/>
<path style=" stroke:none;fill-rule:nonzero;fill:rgb(0%,0%,0%);fill-opacity:0.196078;" d="M 42 18 L 56 32 L 56 18 Z M 42 18 "/>
<path style=" stroke:none;fill-rule:nonzero;fill:rgb(100%,100%,100%);fill-opacity:0.392157;" d="M 38 0 L 55.984375 18 L 40.757812 18 C 39.410156 18 38 16.574219 38 15.226562 Z M 38 0 "/>
<path style=" stroke:none;fill-rule:evenodd;fill:rgb(97.647059%,97.647059%,97.647059%);fill-opacity:1;" d="M 18 0 L 24 0 L 24 6 L 18 6 Z M 18 0 "/>
<path style=" stroke:none;fill-rule:evenodd;fill:rgb(97.647059%,97.647059%,97.647059%);fill-opacity:1;" d="M 24 6 L 30 6 L 30 12 L 24 12 Z M 24 6 "/>
<path style=" stroke:none;fill-rule:evenodd;fill:rgb(97.647059%,97.647059%,97.647059%);fill-opacity:1;" d="M 18 12 L 24 12 L 24 18 L 18 18 Z M 18 12 "/>
<path style=" stroke:none;fill-rule:evenodd;fill:rgb(97.647059%,97.647059%,97.647059%);fill-opacity:1;" d="M 24 18 L 30 18 L 30 24 L 24 24 Z M 24 18 "/>
<path style=" stroke:none;fill-rule:evenodd;fill:rgb(97.647059%,97.647059%,97.647059%);fill-opacity:1;" d="M 18 24 L 24 24 L 24 30 L 18 30 Z M 18 24 "/>
<path style=" stroke:none;fill-rule:evenodd;fill:rgb(97.647059%,97.647059%,97.647059%);fill-opacity:1;" d="M 18 32 L 30 32 L 30 44 L 18 44 Z M 18 32 "/>
<path style=" stroke:none;fill-rule:nonzero;fill:rgb(100%,100%,100%);fill-opacity:1;" d="M 19.148438 60.515625 C 19.492188 60.515625 19.773438 60.484375 19.992188 60.421875 C 20.21875 60.34375 20.398438 60.242188 20.53125 60.125 C 20.664062 59.992188 20.75 59.84375 20.796875 59.695312 C 20.851562 59.523438 20.875 59.359375 20.875 59.195312 C 20.875 58.984375 20.8125 58.796875 20.695312 58.632812 C 20.578125 58.46875 20.421875 58.328125 20.234375 58.203125 C 20.046875 58.070312 19.84375 57.960938 19.609375 57.859375 C 19.382812 57.75 19.148438 57.648438 18.921875 57.5625 C 18.617188 57.453125 18.296875 57.328125 17.96875 57.179688 C 17.640625 57.039062 17.34375 56.859375 17.070312 56.640625 C 16.804688 56.414062 16.585938 56.148438 16.414062 55.828125 C 16.234375 55.5 16.148438 55.09375 16.148438 54.609375 C 16.148438 53.648438 16.453125 52.898438 17.070312 52.359375 C 17.6875 51.820312 18.546875 51.554688 19.625 51.554688 C 20.25 51.554688 20.796875 51.625 21.25 51.765625 C 21.726562 51.90625 22.117188 52.070312 22.4375 52.242188 L 21.84375 53.8125 C 21.570312 53.65625 21.265625 53.53125 20.921875 53.414062 C 20.59375 53.304688 20.210938 53.25 19.773438 53.25 C 18.703125 53.25 18.164062 53.640625 18.164062 54.421875 C 18.164062 54.625 18.21875 54.796875 18.328125 54.953125 C 18.4375 55.09375 18.578125 55.226562 18.742188 55.351562 C 18.914062 55.460938 19.109375 55.5625 19.320312 55.648438 C 19.539062 55.734375 19.75 55.820312 19.953125 55.890625 C 20.273438 56.015625 20.601562 56.15625 20.945312 56.304688 C 21.289062 56.453125 21.609375 56.648438 21.890625 56.898438 C 22.1875 57.140625 22.429688 57.453125 22.617188 57.828125 C 22.804688 58.1875 22.898438 58.648438 22.898438 59.210938 C 22.898438 60.171875 22.585938 60.914062 21.960938 61.445312 C 21.34375 61.960938 20.414062 62.21875 19.148438 62.21875 C 18.3125 62.21875 17.632812 62.132812 17.132812 61.953125 C 16.632812 61.765625 16.25 61.59375 16 61.445312 L 16.59375 59.789062 C 16.882812 59.96875 17.234375 60.132812 17.640625 60.289062 C 18.054688 60.4375 18.5625 60.515625 19.148438 60.515625 "/>
<path style=" stroke:none;fill-rule:nonzero;fill:rgb(100%,100%,100%);fill-opacity:1;" d="M 24.4375 62 L 24.4375 60.320312 L 26.65625 60.320312 L 26.65625 53.46875 L 24.4375 53.46875 L 24.4375 51.78125 L 30.890625 51.78125 L 30.890625 53.46875 L 28.695312 53.46875 L 28.695312 60.320312 L 30.890625 60.320312 L 30.890625 62 L 24.4375 62 "/>
<path style=" stroke:none;fill-rule:nonzero;fill:rgb(100%,100%,100%);fill-opacity:1;" d="M 39.5625 51.78125 L 39.5625 53.46875 L 36.882812 53.46875 L 36.882812 62 L 34.851562 62 L 34.851562 53.46875 L 32.171875 53.46875 L 32.171875 51.78125 L 39.5625 51.78125 "/>
<path style=" stroke:none;fill-rule:nonzero;fill:rgb(100%,100%,100%);fill-opacity:1;" d="M 45.8125 62 C 45.609375 61.445312 45.351562 60.820312 45.046875 60.140625 C 44.75 59.453125 44.4375 58.773438 44.109375 58.09375 C 43.789062 58.742188 43.476562 59.414062 43.15625 60.125 C 42.835938 60.8125 42.5625 61.445312 42.335938 62 L 40.148438 62 C 40.257812 61.703125 40.421875 61.351562 40.625 60.929688 C 40.84375 60.515625 41.085938 60.0625 41.335938 59.578125 C 41.59375 59.09375 41.867188 58.59375 42.15625 58.09375 C 42.4375 57.570312 42.710938 57.078125 42.976562 56.601562 L 40.3125 51.78125 L 42.5 51.78125 L 44.109375 55.054688 L 45.796875 51.78125 L 47.835938 51.78125 L 45.242188 56.554688 C 45.539062 57.03125 45.828125 57.523438 46.109375 58.039062 C 46.398438 58.554688 46.65625 59.0625 46.898438 59.5625 C 47.148438 60.046875 47.367188 60.5 47.554688 60.929688 C 47.742188 61.351562 47.890625 61.703125 48 62 L 45.8125 62 "/>
</g>
</svg>

<svg xmlns="http://www.w3.org/2000/svg" viewBox="0 0 64 64">
 <g>
  <path d="m 10.672 0 c -1.375 0 -2.672 1.355 -2.672 2.789 l 0 58.42 c 0 1.355 1.375 2.789 2.672 2.789 l 42.656 0 c 1.297 0 2.672 -1.434 2.672 -2.789 l 0 -43.21 l -18 -18 m -27.328 0" style="fill:#c19553;fill-opacity:1;stroke:none;fill-rule:nonzero"/>
  <path d="m 8 48 l 0 13.336 c 0 1.297 1.375 2.664 2.664 2.664 l 42.672 0 c 1.289 0 2.664 -1.367 2.664 -2.664 l 0 -13.336 m -48 0" style="fill:#000;fill-opacity:0.196;stroke:none;fill-rule:nonzero"/>
  <path d="m 42 18 l 14 14 l 0 -14 m -14 0" style="fill:#000;fill-opacity:0.196;stroke:none;fill-rule:nonzero"/>
  <path d="m 38 0 l 17.984 18 l -15.227 0 c -1.348 0 -2.758 -1.426 -2.758 -2.773 m 0 -15.227" style="fill:#fff;fill-opacity:0.392;stroke:none;fill-rule:nonzero"/>
  <path d="m 18 0 l 6 0 l 0 6 l -6 0 m 0 -6" style="fill:#f9f9f9;fill-opacity:1;stroke:none;fill-rule:evenodd"/>
  <path d="m 24 6 l 6 0 l 0 6 l -6 0 m 0 -6" style="fill:#f9f9f9;fill-opacity:1;stroke:none;fill-rule:evenodd"/>
  <path d="m 18 12 l 6 0 l 0 6 l -6 0 m 0 -6" style="fill:#f9f9f9;fill-opacity:1;stroke:none;fill-rule:evenodd"/>
  <path d="m 24 18 l 6 0 l 0 6 l -6 0 m 0 -6" style="fill:#f9f9f9;fill-opacity:1;stroke:none;fill-rule:evenodd"/>
  <path d="m 18 24 l 6 0 l 0 6 l -6 0 m 0 -6" style="fill:#f9f9f9;fill-opacity:1;stroke:none;fill-rule:evenodd"/>
  <path d="m 18 32 l 12 0 l 0 12 l -12 0 m 0 -12" style="fill:#f9f9f9;fill-opacity:1;stroke:none;fill-rule:evenodd"/>
  <path d="m 19.15 60.52 c 0.344 0 0.625 -0.031 0.844 -0.094 c 0.227 -0.078 0.406 -0.18 0.539 -0.297 c 0.133 -0.133 0.219 -0.281 0.266 -0.43 c 0.055 -0.172 0.078 -0.336 0.078 -0.5 c 0 -0.211 -0.063 -0.398 -0.18 -0.563 c -0.117 -0.164 -0.273 -0.305 -0.461 -0.43 c -0.188 -0.133 -0.391 -0.242 -0.625 -0.344 c -0.227 -0.109 -0.461 -0.211 -0.688 -0.297 c -0.305 -0.109 -0.625 -0.234 -0.953 -0.383 c -0.328 -0.141 -0.625 -0.32 -0.898 -0.539 c -0.266 -0.227 -0.484 -0.492 -0.656 -0.813 c -0.18 -0.328 -0.266 -0.734 -0.266 -1.219 c 0 -0.961 0.305 -1.711 0.922 -2.25 c 0.617 -0.539 1.477 -0.805 2.555 -0.805 c 0.625 0 1.172 0.07 1.625 0.211 c 0.477 0.141 0.867 0.305 1.188 0.477 l -0.594 1.57 c -0.273 -0.156 -0.578 -0.281 -0.922 -0.398 c -0.328 -0.109 -0.711 -0.164 -1.148 -0.164 c -1.07 0 -1.609 0.391 -1.609 1.172 c 0 0.203 0.055 0.375 0.164 0.531 c 0.109 0.141 0.25 0.273 0.414 0.398 c 0.172 0.109 0.367 0.211 0.578 0.297 c 0.219 0.086 0.43 0.172 0.633 0.242 c 0.32 0.125 0.648 0.266 0.992 0.414 c 0.344 0.148 0.664 0.344 0.945 0.594 c 0.297 0.242 0.539 0.555 0.727 0.93 c 0.188 0.359 0.281 0.82 0.281 1.383 c 0 0.961 -0.313 1.703 -0.938 2.234 c -0.617 0.516 -1.547 0.773 -2.813 0.773 c -0.836 0 -1.516 -0.086 -2.02 -0.266 c -0.5 -0.188 -0.883 -0.359 -1.133 -0.508 l 0.594 -1.656 c 0.289 0.18 0.641 0.344 1.047 0.5 c 0.414 0.148 0.922 0.227 1.508 0.227" style="fill:#fff;fill-opacity:1;stroke:none;fill-rule:nonzero"/>
  <path d="m 24.438 62 l 0 -1.68 l 2.219 0 l 0 -6.852 l -2.219 0 l 0 -1.688 l 6.453 0 l 0 1.688 l -2.195 0 l 0 6.852 l 2.195 0 l 0 1.68 l -6.453 0" style="fill:#fff;fill-opacity:1;stroke:none;fill-rule:nonzero"/>
  <path d="m 39.563 51.781 l 0 1.688 l -2.68 0 l 0 8.531 l -2.031 0 l 0 -8.531 l -2.68 0 l 0 -1.688 l 7.391 0" style="fill:#fff;fill-opacity:1;stroke:none;fill-rule:nonzero"/>
  <path d="m 45.813 62 c -0.203 -0.555 -0.461 -1.18 -0.766 -1.859 c -0.297 -0.688 -0.609 -1.367 -0.938 -2.047 c -0.32 0.648 -0.633 1.32 -0.953 2.031 c -0.32 0.688 -0.594 1.32 -0.82 1.875 l -2.188 0 c 0.109 -0.297 0.273 -0.648 0.477 -1.07 c 0.219 -0.414 0.461 -0.867 0.711 -1.352 c 0.258 -0.484 0.531 -0.984 0.82 -1.484 c 0.281 -0.523 0.555 -1.016 0.82 -1.492 l -2.664 -4.82 l 2.188 0 l 1.609 3.273 l 1.688 -3.273 l 2.039 0 l -2.594 4.773 c 0.297 0.477 0.586 0.969 0.867 1.484 c 0.289 0.516 0.547 1.023 0.789 1.523 c 0.25 0.484 0.469 0.938 0.656 1.367 c 0.188 0.422 0.336 0.773 0.445 1.07 l -2.188 0" style="fill:#fff;fill-opacity:1;stroke:none;fill-rule:nonzero"/>
 </g>
</svg>
